X: 20611
T: the CUCKOO SONG
Q: "Andante"
%R: jig
B: "Edinburgh Repository of Music" v.2 p.61
F: http://digital.nls.uk/special-collections-of-printed-music/pageturner.cfm?id=87776133
Z: 2015 John Chambers <jc:trillian.mit.edu>
M: 6/8
L: 1/8
K: G
d |\
(Bdg) d2c | (BG)B A2d | (B/c/)d F G2A | (B/c/)dB A2A |\
B2d (g2f) | efd  ^c2e | A2g (fed) | (Ad)^c d2"_sym"b | ad'g fad |
Ad^c d2 |: d | d2G e2d | (cBA) d3 | BGE c3 | AFD B3 |\
dBG e2d | f2g d2Hz | BG2 BG2 | dB2 dB2 | gd2 gd2 |
gd2 gd2 | (d3 G2=F) | E2z z2z | e3 A2G | F2z z2c |\
B/c/d F G2A | (B/c/d) F G2A | (Bdg) (dBG) | D3 TA3 | G3- G2 :|
